;START_OF_HEADER
;HEADER_VERSION:0.1
;FLAVOR:Griffin
;GENERATOR.NAME:Cura_SteamEngine
;GENERATOR.VERSION:4.13.0
;GENERATOR.BUILD_DATE:2022-01-11
;TARGET_MACHINE.NAME:Ultimaker 3
;EXTRUDER_TRAIN.0.INITIAL_TEMPERATURE:205
;EXTRUDER_TRAIN.0.MATERIAL.VOLUME_USED:12031
;EXTRUDER_TRAIN.0.MATERIAL.GUID:506c9f0d-e3aa-4bd4-b2d2-23e2425b1aa9
;EXTRUDER_TRAIN.0.NOZZLE.DIAMETER:0.4
;EXTRUDER_TRAIN.0.NOZZLE.NAME:AA 0.4
;BUILD_PLATE.TYPE:glass
;BUILD_PLATE.INITIAL_TEMPERATURE:60
;PRINT.TIME:5340
;PRINT.GROUPS:1
;PRINT.SIZE.MIN.X:9
;PRINT.SIZE.MIN.Y:6
;PRINT.SIZE.MIN.Z:0.27
;PRINT.SIZE.MAX.X:159.997
;PRINT.SIZE.MAX.Y:120.93
;PRINT.SIZE.MAX.Z:18.02
;END_OF_HEADER
;Generated with Cura_SteamEngine 4.13.0
T0
M82 ;absolute extrusion mode

G92 E0
M109 S205
G0 F15000 X9 Y6 Z2
G280
G1 F1500 E-6.5
;LAYER_COUNT:64
;LAYER:0
M107
M204 S625
M205 X30 Y30
G1 F600 Z2.27
G0 F4285.7 X74.531 Y94.874 Z2.27
M204 S500
M205 X20 Y20
;TYPE:SKIRT
G1 F600 Z0.27
G1 F1500 E0
G1 F1200 X74.978 Y94.574 E0.00957
G1 X75.464 Y94.342 E0.01914
G1 X75.98 Y94.185 E0.02873
G1 X76.512 Y94.107 E0.03829
G1 X76.983 Y94.103 E0.04666
G1 X77.812 Y94.151 E0.06142
G1 X87.039 Y94.824 E0.22588
G1 X89.396 Y94.967 E0.26785
G1 X98.312 Y95.4 E0.42653
G1 X100.737 Y95.489 E0.46966
G1 X109.693 Y95.706 E0.62891
G1 X112.108 Y95.735 E0.67184
G1 X121.027 Y95.735 E0.83039
G1 X123.442 Y95.706 E0.87332
G1 X132.398 Y95.489 E1.03257
G1 X134.824 Y95.4 E1.07572
G1 X143.778 Y94.965 E1.23508
G1 X146.133 Y94.822 E1.27702
G1 X155.4 Y94.146 E1.44218
G1 X156.139 Y94.102 E1.45534
G1 X156.678 Y94.11 E1.46493
G1 X157.209 Y94.198 E1.47449
G1 X157.722 Y94.363 E1.48407
G1 X158.204 Y94.602 E1.49364
G1 X158.646 Y94.91 E1.50321
G1 X159.037 Y95.28 E1.51278
G1 X159.37 Y95.704 E1.52237
G1 X159.636 Y96.172 E1.53193
G1 X159.829 Y96.675 E1.54151
G1 X159.947 Y97.2 E1.55108
G1 X159.985 Y97.668 E1.55942
G1 X159.997 Y98.423 E1.57285
G1 X159.997 Y116.614 E1.89621
G1 X159.987 Y117.341 E1.90913
G1 X159.939 Y117.877 E1.9187
G1 X159.813 Y118.401 E1.92828
G1 X159.611 Y118.9 E1.93785
G1 X159.337 Y119.364 E1.94743
G1 X158.998 Y119.782 E1.95699
G1 X158.6 Y120.145 E1.96657
G1 X158.153 Y120.445 E1.97614
G1 X157.667 Y120.676 E1.9857
G1 X157.151 Y120.833 E1.99529
G1 X156.459 Y120.92 E2.00769
G1 X156.037 Y120.93 E2.01519
G1 X77.427 Y120.93 E3.41256
G1 X76.729 Y120.921 E3.42497
G1 X76.193 Y120.874 E3.43454
G1 X75.669 Y120.748 E3.44412
G1 X75.17 Y120.546 E3.45369
G1 X74.706 Y120.273 E3.46326
G1 X74.288 Y119.934 E3.47282
G1 X73.924 Y119.537 E3.4824
G1 X73.623 Y119.09 E3.49198
G1 X73.392 Y118.604 E3.50154
G1 X73.235 Y118.089 E3.51111
G1 X73.147 Y117.389 E3.52365
G1 X73.137 Y116.958 E3.53132
G1 X73.137 Y98.36 E3.86191
G1 X73.146 Y97.679 E3.87402
G1 X73.193 Y97.143 E3.88358
G1 X73.319 Y96.619 E3.89317
G1 X73.521 Y96.12 E3.90273
G1 X73.795 Y95.656 E3.91231
G1 X74.134 Y95.238 E3.92188
G1 X74.531 Y94.874 E3.93145
M204 S625
M205 X30 Y30
G0 F4285.7 X74.937 Y95.096
M204 S500
M205 X20 Y20
G1 F1200 X75.373 Y94.84 E3.94044
G1 X75.845 Y94.655 E3.94945
G1 X76.339 Y94.547 E3.95844
G1 X76.959 Y94.522 E3.96947
G1 X77.782 Y94.57 E3.98413
G1 X86.997 Y95.242 E4.14837
G1 X89.406 Y95.388 E4.19127
G1 X98.289 Y95.82 E4.34936
G1 X100.717 Y95.909 E4.39255
G1 X109.681 Y96.126 E4.55194
G1 X112.103 Y96.155 E4.595
G1 X121.032 Y96.155 E4.75372
G1 X123.454 Y96.126 E4.79677
G1 X132.418 Y95.909 E4.95616
G1 X134.847 Y95.82 E4.99937
G1 X143.768 Y95.386 E5.15814
G1 X146.137 Y95.242 E5.20033
G1 X155.425 Y94.566 E5.36587
G1 X156.164 Y94.522 E5.37903
G1 X156.67 Y94.532 E5.38802
G1 X157.169 Y94.621 E5.39703
G1 X157.647 Y94.788 E5.40603
G1 X158.093 Y95.027 E5.41503
G1 X158.496 Y95.334 E5.42403
G1 X158.845 Y95.701 E5.43304
G1 X159.133 Y96.117 E5.44203
G1 X159.351 Y96.574 E5.45103
G1 X159.495 Y97.06 E5.46004
G1 X159.565 Y97.675 E5.47104
G1 X159.577 Y98.43 E5.48447
G1 X159.577 Y116.608 E5.8076
G1 X159.567 Y117.335 E5.82052
G1 X159.52 Y117.839 E5.82952
G1 X159.394 Y118.33 E5.83853
G1 X159.193 Y118.795 E5.84754
G1 X158.921 Y119.222 E5.85654
G1 X158.586 Y119.601 E5.86553
G1 X158.195 Y119.923 E5.87453
G1 X157.758 Y120.179 E5.88353
G1 X157.287 Y120.363 E5.89252
G1 X156.792 Y120.471 E5.90153
G1 X156.127 Y120.509 E5.91337
G1 X77.433 Y120.51 E7.31223
G1 X76.735 Y120.501 E7.32464
G1 X76.23 Y120.454 E7.33366
G1 X75.74 Y120.329 E7.34265
G1 X75.275 Y120.128 E7.35165
G1 X74.847 Y119.857 E7.36066
G1 X74.468 Y119.522 E7.36965
G1 X74.146 Y119.131 E7.37865
G1 X73.889 Y118.695 E7.38765
G1 X73.704 Y118.223 E7.39666
G1 X73.596 Y117.729 E7.40565
G1 X73.558 Y117.045 E7.41783
G1 X73.557 Y98.366 E7.74986
G1 X73.566 Y97.685 E7.76197
G1 X73.613 Y97.18 E7.77099
G1 X73.738 Y96.69 E7.77997
G1 X73.939 Y96.225 E7.78898
G1 X74.211 Y95.798 E7.79798
G1 X74.546 Y95.418 E7.80698
G1 X74.937 Y95.096 E7.81599
M204 S625
M205 X30 Y30
G1 F1500 E1.31599
;MESH:1gant_partie_basse_capteur1_M.STL
G0 F4285.7 X77.38 Y98.374
G0 X78.289 Y115.778
G0 X82.227 Y115.766
G0 X82.553 Y111.062
G0 X83.448 Y110.339
G0 X80.619 Y109.396
M204 S500
M205 X20 Y20
;TYPE:WALL-INNER
G1 F1500 E7.81599
G1 F1200 X81.338 Y109.76 E7.82827
G1 X89.122 Y109.76 E7.94687
G1 X89.763 Y109.548 E7.95716
G1 X90.127 Y108.829 E7.96943
G1 X90.127 Y106.845 E7.99966
G1 X89.915 Y106.204 E8.00995
G1 X89.196 Y105.84 E8.02223
G1 X81.412 Y105.84 E8.14083
G1 X80.771 Y106.052 E8.15112
G1 X80.407 Y106.771 E8.1634
G1 X80.407 Y108.755 E8.19363
G1 X80.619 Y109.396 E8.20391
M204 S625
M205 X30 Y30
G0 F4285.7 X80.914 Y109.142
M204 S500
M205 X20 Y20
G1 F1200 X81.424 Y109.4 E8.21262
G1 X89.064 Y109.4 E8.32903
G1 X89.509 Y109.253 E8.33617
G1 X89.767 Y108.743 E8.34488
G1 X89.767 Y106.903 E8.37291
G1 X89.62 Y106.458 E8.38005
G1 X89.11 Y106.2 E8.38876
G1 X81.47 Y106.2 E8.50517
G1 X81.025 Y106.347 E8.51231
G1 X80.767 Y106.857 E8.52102
G1 X80.767 Y108.697 E8.54905
G1 X80.914 Y109.142 E8.55619
M204 S625
M205 X30 Y30
G0 F4285.7 X81.234 Y108.867
M204 S500
M205 X20 Y20
;TYPE:WALL-OUTER
G1 F1200 X81.517 Y109.01 E8.56183
G1 X89.001 Y109.01 E8.69487
G1 X89.234 Y108.933 E8.69923
G1 X89.377 Y108.65 E8.70486
G1 X89.377 Y106.966 E8.7348
G1 X89.3 Y106.733 E8.73916
G1 X89.017 Y106.59 E8.7448
G1 X81.533 Y106.59 E8.87783
G1 X81.3 Y106.667 E8.8822
G1 X81.157 Y106.95 E8.88783
G1 X81.157 Y108.634 E8.91777
G1 X81.234 Y108.867 E8.92213
M204 S625
M205 X30 Y30
G0 F4285.7 X81.412 Y108.957
G0 X81.204 Y109.368
G0 X81.19 Y109.393
G0 X83.448 Y110.339
G0 X82.511 Y112.919
G0 X82.441 Y113.874
G0 X82.695 Y114.802
G0 X83.241 Y115.592
G0 X83.84 Y116.043
G0 X84.933 Y116.481
G0 X84.944 Y116.382
M204 S500
M205 X20 Y20
;TYPE:WALL-INNER
G1 F1200 X85.423 Y116.396 E8.92943
G1 X85.888 Y116.33 E8.93659
G1 X86.339 Y116.189 E8.94379
G1 X86.767 Y115.965 E8.95115
G1 X87.142 Y115.681 E8.95831
G1 X87.467 Y115.333 E8.96557
G1 X87.729 Y114.933 E8.97285
G1 X87.917 Y114.502 E8.98002
G1 X88.032 Y114.041 E8.98726
G1 X88.067 Y113.567 E8.9945
G1 X88.022 Y113.092 E9.00177
G1 X87.896 Y112.636 E9.00898
G1 X87.694 Y112.204 E9.01624
G1 X87.425 Y111.816 E9.02344
G1 X87.096 Y111.479 E9.03061
G1 X86.708 Y111.198 E9.03791
G1 X86.277 Y110.988 E9.04522
G1 X85.824 Y110.857 E9.0524
G1 X85.356 Y110.801 E9.05958
G1 X84.875 Y110.826 E9.06692
G1 X84.419 Y110.931 E9.07405
G1 X83.976 Y111.115 E9.08136
G1 X83.576 Y111.368 E9.08857
G1 X83.221 Y111.687 E9.09584
G1 X82.928 Y112.06 E9.10307
G1 X82.701 Y112.477 E9.11031
G1 X82.549 Y112.928 E9.11756
G1 X82.475 Y113.396 E9.12478
G1 X82.48 Y113.871 E9.13201
G1 X82.564 Y114.336 E9.13921
G1 X82.731 Y114.786 E9.14653
G1 X82.963 Y115.193 E9.15367
G1 X83.269 Y115.564 E9.16099
G1 X83.63 Y115.872 E9.16822
G1 X84.036 Y116.116 E9.17544
G1 X84.48 Y116.287 E9.18269
G1 X84.944 Y116.382 E9.18991
M204 S625
M205 X30 Y30
G0 F4285.7 X84.989 Y115.993
M204 S500
M205 X20 Y20
;TYPE:WALL-OUTER
G1 F1200 X85.401 Y116.005 E9.19723
G1 X85.802 Y115.948 E9.20443
G1 X86.189 Y115.827 E9.21164
G1 X86.557 Y115.634 E9.21903
G1 X86.88 Y115.39 E9.22622
G1 X87.159 Y115.091 E9.23349
G1 X87.385 Y114.747 E9.24081
G1 X87.547 Y114.376 E9.248
G1 X87.646 Y113.979 E9.25528
G1 X87.676 Y113.571 E9.26255
G1 X87.637 Y113.163 E9.26984
G1 X87.529 Y112.771 E9.27706
G1 X87.355 Y112.399 E9.28436
G1 X87.123 Y112.065 E9.29159
G1 X86.84 Y111.775 E9.2988
G1 X86.507 Y111.534 E9.3061
G1 X86.136 Y111.353 E9.31344
G1 X85.746 Y111.24 E9.32066
G1 X85.343 Y111.192 E9.32787
G1 X84.929 Y111.214 E9.33524
G1 X84.538 Y111.304 E9.34237
G1 X84.156 Y111.462 E9.34972
G1 X83.812 Y111.68 E9.35696
G1 X83.507 Y111.954 E9.36425
G1 X83.255 Y112.275 E9.3715
G1 X83.06 Y112.634 E9.37877
G1 X82.929 Y113.022 E9.38605
G1 X82.865 Y113.424 E9.39328
G1 X82.87 Y113.834 E9.40057
G1 X82.942 Y114.233 E9.40778
G1 X83.086 Y114.621 E9.41514
G1 X83.285 Y114.971 E9.42229
G1 X83.548 Y115.289 E9.42963
G1 X83.859 Y115.554 E9.43689
G1 X84.208 Y115.764 E9.44413
G1 X84.59 Y115.911 E9.45141
G1 X84.989 Y115.993 E9.45865
M204 S625
M205 X30 Y30
G0 F4285.7 X85.189 Y115.998
G0 X85.175 Y116.46
G0 X85.175 Y116.488
G0 X103.094 Y115.766
G0 X103.42 Y111.062
G0 X104.312 Y110.339
G0 X101.486 Y109.396
M204 S500
M205 X20 Y20
;TYPE:WALL-INNER
G1 F1200 X102.205 Y109.76 E9.47093
G1 X109.989 Y109.76 E9.58953
G1 X110.63 Y109.548 E9.59981
G1 X110.994 Y108.829 E9.61209
G1 X110.994 Y106.845 E9.64232
G1 X110.782 Y106.204 E9.65261
G1 X110.063 Y105.84 E9.66489
G1 X102.279 Y105.84 E9.78349
G1 X101.638 Y106.052 E9.79378
G1 X101.274 Y106.771 E9.80606
G1 X101.274 Y108.755 E9.83629
G1 X101.486 Y109.396 E9.84657
M204 S625
M205 X30 Y30
G0 F4285.7 X101.781 Y109.142
M204 S500
M205 X20 Y20
G1 F1200 X102.291 Y109.4 E9.85528
G1 X109.931 Y109.4 E9.97169
G1 X110.376 Y109.253 E9.97883
G1 X110.634 Y108.743 E9.98754
G1 X110.634 Y106.903 E10.01557
G1 X110.487 Y106.458 E10.02271
G1 X109.977 Y106.2 E10.03142
G1 X102.337 Y106.2 E10.14783
G1 X101.892 Y106.347 E10.15497
G1 X101.634 Y106.857 E10.16368
G1 X101.634 Y108.697 E10.19171
G1 X101.781 Y109.142 E10.19885
M204 S625
M205 X30 Y30
G0 F4285.7 X102.101 Y108.867
M204 S500
M205 X20 Y20
;TYPE:WALL-OUTER
G1 F1200 X102.384 Y109.01 E10.20449
G1 X109.868 Y109.01 E10.33753
G1 X110.101 Y108.933 E10.34189
G1 X110.244 Y108.65 E10.34752
G1 X110.244 Y106.966 E10.37746
G1 X110.167 Y106.733 E10.38182
G1 X109.884 Y106.59 E10.38746
G1 X102.4 Y106.59 E10.52049
G1 X102.167 Y106.667 E10.52485
G1 X102.024 Y106.95 E10.53049
G1 X102.024 Y108.634 E10.56043
G1 X102.101 Y108.867 E10.56479
M204 S625
M205 X30 Y30
G0 F4285.7 X102.279 Y108.957
G0 X102.071 Y109.368
G0 X102.057 Y109.393
G0 X104.312 Y110.339
G0 X103.378 Y112.919
G0 X103.307 Y113.876
G0 X103.562 Y114.802
G0 X104.108 Y115.592
G0 X104.707 Y116.043
G0 X105.799 Y116.481
G0 X105.81 Y116.382
M204 S500
M205 X20 Y20
;TYPE:WALL-INNER
G1 F1200 X106.29 Y116.396 E10.5721
G1 X106.754 Y116.33 E10.57925
G1 X107.205 Y116.189 E10.58645
G1 X107.634 Y115.966 E10.59381
G1 X108.01 Y115.679 E10.60102
G1 X108.334 Y115.333 E10.60824
G1 X108.596 Y114.934 E10.61551
G1 X108.786 Y114.502 E10.62271
G1 X108.9 Y114.038 E10.62999
G1 X108.934 Y113.566 E10.6372
G1 X108.888 Y113.092 E10.64445
G1 X108.763 Y112.636 E10.65166
G1 X108.561 Y112.204 E10.65892
G1 X108.292 Y111.815 E10.66613
G1 X107.959 Y111.477 E10.67336
G1 X107.576 Y111.199 E10.68057
G1 X107.147 Y110.988 E10.68785
G1 X106.686 Y110.855 E10.69516
G1 X106.223 Y110.801 E10.70227
G1 X105.742 Y110.826 E10.7096
G1 X105.284 Y110.931 E10.71676
G1 X104.842 Y111.115 E10.72406
G1 X104.443 Y111.368 E10.73126
G1 X104.088 Y111.687 E10.73853
G1 X103.795 Y112.06 E10.74576
G1 X103.568 Y112.477 E10.75299
G1 X103.416 Y112.928 E10.76024
G1 X103.341 Y113.395 E10.76745
G1 X103.346 Y113.873 E10.77473
G1 X103.433 Y114.338 E10.78194
G1 X103.598 Y114.786 E10.78921
G1 X103.83 Y115.193 E10.79635
G1 X104.136 Y115.564 E10.80368
G1 X104.497 Y115.872 E10.81091
G1 X104.903 Y116.116 E10.81813
G1 X105.348 Y116.287 E10.82539
G1 X105.81 Y116.382 E10.83258
M204 S625
M205 X30 Y30
G0 F4285.7 X105.855 Y115.993
M204 S500
M205 X20 Y20
;TYPE:WALL-OUTER
G1 F1200 X106.268 Y116.005 E10.83992
G1 X106.668 Y115.948 E10.8471
G1 X107.056 Y115.827 E10.85433
G1 X107.424 Y115.635 E10.86171
G1 X107.748 Y115.389 E10.86894
G1 X108.026 Y115.091 E10.87618
G1 X108.252 Y114.747 E10.8835
G1 X108.415 Y114.376 E10.8907
G1 X108.513 Y113.977 E10.89801
G1 X108.543 Y113.571 E10.90524
G1 X108.503 Y113.163 E10.91253
G1 X108.396 Y112.771 E10.91975
G1 X108.222 Y112.399 E10.92705
G1 X107.991 Y112.065 E10.93427
G1 X107.704 Y111.774 E10.94154
G1 X107.374 Y111.534 E10.94879
G1 X107.006 Y111.353 E10.95608
G1 X106.609 Y111.239 E10.96342
G1 X106.21 Y111.192 E10.97056
G1 X105.796 Y111.214 E10.97793
G1 X105.403 Y111.304 E10.9851
G1 X105.023 Y111.462 E10.99242
G1 X104.679 Y111.68 E10.99966
G1 X104.374 Y111.954 E11.00694
G1 X104.122 Y112.275 E11.0142
G1 X103.927 Y112.634 E11.02146
G1 X103.796 Y113.022 E11.02874
G1 X103.731 Y113.424 E11.03598
G1 X103.736 Y113.835 E11.04329
G1 X103.81 Y114.234 E11.0505
G1 X103.953 Y114.621 E11.05783
G1 X104.152 Y114.971 E11.06499
G1 X104.415 Y115.289 E11.07233
G1 X104.726 Y115.554 E11.07959
G1 X105.075 Y115.764 E11.08683
G1 X105.458 Y115.911 E11.09412
G1 X105.855 Y115.993 E11.10133
M204 S625
M205 X30 Y30
G0 F4285.7 X106.055 Y115.998
G0 X106.041 Y116.46
G0 X106.041 Y116.488
G0 X123.96 Y115.766
G0 X124.287 Y111.063
G0 X125.179 Y110.339
G0 X122.353 Y109.396
M204 S500
M205 X20 Y20
;TYPE:WALL-INNER
G1 F1200 X123.072 Y109.76 E11.11361
G1 X130.856 Y109.76 E11.23221
G1 X131.497 Y109.548 E11.24249
G1 X131.861 Y108.829 E11.25477
G1 X131.861 Y106.845 E11.285
G1 X131.649 Y106.204 E11.29529
G1 X130.93 Y105.84 E11.30757
G1 X123.146 Y105.84 E11.42617
G1 X122.505 Y106.052 E11.43646
G1 X122.141 Y106.771 E11.44874
G1 X122.141 Y108.755 E11.47897
G1 X122.353 Y109.396 E11.48925
M204 S625
M205 X30 Y30
G0 F4285.7 X122.648 Y109.142
M204 S500
M205 X20 Y20
G1 F1200 X123.158 Y109.4 E11.49796
G1 X130.798 Y109.4 E11.61437
G1 X131.243 Y109.253 E11.62151
G1 X131.501 Y108.743 E11.63022
G1 X131.501 Y106.903 E11.65825
G1 X131.354 Y106.458 E11.66539
G1 X130.844 Y106.2 E11.6741
G1 X123.204 Y106.2 E11.79051
G1 X122.759 Y106.347 E11.79765
G1 X122.501 Y106.857 E11.80636
G1 X122.501 Y108.697 E11.83439
G1 X122.648 Y109.142 E11.84153
M204 S625
M205 X30 Y30
G0 F4285.7 X122.968 Y108.867
M204 S500
M205 X20 Y20
;TYPE:WALL-OUTER
G1 F1200 X123.251 Y109.01 E11.84717
G1 X130.735 Y109.01 E11.9802
G1 X130.968 Y108.933 E11.98457
G1 X131.111 Y108.65 E11.9902
G1 X131.111 Y106.966 E12.02014
G1 X131.034 Y106.733 E12.0245
G1 X130.751 Y106.59 E12.03014
G1 X123.267 Y106.59 E12.16317
G1 X123.034 Y106.667 E12.16753
G1 X122.891 Y106.95 E12.17317
G1 X122.891 Y108.634 E12.20311
G1 X122.968 Y108.867 E12.20747
M204 S625
M205 X30 Y30
G0 F4285.7 X123.146 Y108.957
G0 X122.938 Y109.368
G0 X122.924 Y109.393
G0 X125.179 Y110.339
G0 X124.244 Y112.919
G0 X124.174 Y113.874
G0 X124.429 Y114.803
G0 X124.976 Y115.591
G0 X125.571 Y116.042
G0 X126.666 Y116.481
G0 X126.677 Y116.382
M204 S500
M205 X20 Y20
;TYPE:WALL-INNER
G1 F1200 X127.157 Y116.396 E12.21478
G1 X127.621 Y116.33 E12.22192
G1 X128.072 Y116.189 E12.22912
G1 X128.5 Y115.965 E12.23648
G1 X128.875 Y115.681 E12.24365
G1 X129.201 Y115.333 E12.25092
G1 X129.464 Y114.933 E12.25821
G1 X129.651 Y114.5 E12.2654
G1 X129.765 Y114.042 E12.27259
G1 X129.801 Y113.567 E12.27985
G1 X129.755 Y113.092 E12.28712
G1 X129.629 Y112.637 E12.29431
G1 X129.429 Y112.206 E12.30155
G1 X129.16 Y111.816 E12.30877
G1 X128.826 Y111.476 E12.31603
G1 X128.441 Y111.198 E12.32327
G1 X128.01 Y110.988 E12.33057
G1 X127.557 Y110.857 E12.33776
G1 X127.09 Y110.801 E12.34492
G1 X126.609 Y110.826 E12.35226
G1 X126.152 Y110.931 E12.35941
G1 X125.708 Y111.115 E12.36673
G1 X125.308 Y111.369 E12.37395
G1 X124.955 Y111.687 E12.38119
G1 X124.663 Y112.058 E12.38838
G1 X124.434 Y112.476 E12.39564
G1 X124.282 Y112.928 E12.40291
G1 X124.208 Y113.396 E12.41013
G1 X124.213 Y113.871 E12.41737
G1 X124.297 Y114.336 E12.42457
G1 X124.465 Y114.787 E12.4319
G1 X124.697 Y115.194 E12.43904
G1 X125.004 Y115.563 E12.44635
G1 X125.361 Y115.87 E12.45353
G1 X125.769 Y116.116 E12.46079
G1 X126.215 Y116.287 E12.46806
G1 X126.677 Y116.382 E12.47525
M204 S625
M205 X30 Y30
G0 F4285.7 X126.722 Y115.993
M204 S500
M205 X20 Y20
;TYPE:WALL-OUTER
G1 F1200 X127.135 Y116.005 E12.48259
G1 X127.535 Y115.948 E12.48978
G1 X127.922 Y115.827 E12.49698
G1 X128.29 Y115.634 E12.50437
