;START_OF_HEADER
;HEADER_VERSION:0.1
;FLAVOR:Griffin
;GENERATOR.NAME:Cura_SteamEngine
;GENERATOR.VERSION:4.13.0
;GENERATOR.BUILD_DATE:2022-01-11
;TARGET_MACHINE.NAME:Ultimaker 3
;EXTRUDER_TRAIN.0.INITIAL_TEMPERATURE:205
;EXTRUDER_TRAIN.0.MATERIAL.VOLUME_USED:6555
;EXTRUDER_TRAIN.0.MATERIAL.GUID:506c9f0d-e3aa-4bd4-b2d2-23e2425b1aa9
;EXTRUDER_TRAIN.0.NOZZLE.DIAMETER:0.4
;EXTRUDER_TRAIN.0.NOZZLE.NAME:AA 0.4
;BUILD_PLATE.TYPE:glass
;BUILD_PLATE.INITIAL_TEMPERATURE:60
;PRINT.TIME:2905
;PRINT.GROUPS:1
;PRINT.SIZE.MIN.X:9
;PRINT.SIZE.MIN.Y:6
;PRINT.SIZE.MIN.Z:0.27
;PRINT.SIZE.MAX.X:152.497
;PRINT.SIZE.MAX.Y:136.13
;PRINT.SIZE.MAX.Z:14.02
;END_OF_HEADER
;Generated with Cura_SteamEngine 4.13.0
T0
M82 ;absolute extrusion mode

G92 E0
M109 S205
G0 F15000 X9 Y6 Z2
G280
G1 F1500 E-6.5
;LAYER_COUNT:48
;LAYER:0
M107
M204 S625
M205 X30 Y30
G1 F600 Z2.27
G0 F4285.7 X82.032 Y112.075 Z2.27
M204 S500
M205 X20 Y20
;TYPE:SKIRT
G1 F600 Z0.27
G1 F1500 E0
G1 F1200 X82.479 Y111.774 E0.00958
G1 X82.965 Y111.543 E0.01914
G1 X83.48 Y111.386 E0.02872
G1 X84.013 Y111.308 E0.03829
G1 X84.391 Y111.3 E0.04501
G1 X85.344 Y111.331 E0.06196
G1 X94.016 Y111.765 E0.21631
G1 X96.022 Y111.845 E0.25199
G1 X104.804 Y112.108 E0.40817
G1 X106.759 Y112.147 E0.44293
G1 X115.609 Y112.235 E0.60026
G1 X117.525 Y112.235 E0.63432
G1 X126.375 Y112.147 E0.79164
G1 X128.33 Y112.108 E0.8264
G1 X137.112 Y111.845 E0.98258
G1 X139.118 Y111.765 E1.01827
G1 X148.055 Y111.318 E1.17733
G1 X148.725 Y111.295 E1.18924
G1 X149.264 Y111.317 E1.19883
G1 X149.793 Y111.418 E1.20841
G1 X150.301 Y111.596 E1.21798
G1 X150.777 Y111.847 E1.22754
G1 X151.211 Y112.166 E1.23712
G1 X151.593 Y112.545 E1.24668
G1 X151.915 Y112.977 E1.25626
G1 X152.169 Y113.452 E1.26583
G1 X152.35 Y113.959 E1.2754
G1 X152.454 Y114.488 E1.28499
G1 X152.479 Y114.854 E1.29151
G1 X152.497 Y115.816 E1.30861
G1 X152.497 Y131.814 E1.59299
G1 X152.487 Y132.541 E1.60592
G1 X152.439 Y133.077 E1.61548
G1 X152.313 Y133.601 E1.62506
G1 X152.111 Y134.1 E1.63463
G1 X151.837 Y134.564 E1.64421
G1 X151.498 Y134.982 E1.65378
G1 X151.1 Y135.345 E1.66335
G1 X150.653 Y135.645 E1.67292
G1 X150.167 Y135.876 E1.68249
G1 X149.651 Y136.033 E1.69208
G1 X148.959 Y136.12 E1.70447
G1 X148.537 Y136.13 E1.71198
G1 X84.927 Y136.13 E2.84271
G1 X84.229 Y136.121 E2.85512
G1 X83.693 Y136.074 E2.86468
G1 X83.169 Y135.948 E2.87426
G1 X82.67 Y135.746 E2.88383
G1 X82.206 Y135.473 E2.8934
G1 X81.788 Y135.134 E2.90297
G1 X81.424 Y134.737 E2.91254
G1 X81.123 Y134.29 E2.92212
G1 X80.892 Y133.804 E2.93169
G1 X80.735 Y133.289 E2.94126
G1 X80.647 Y132.589 E2.9538
G1 X80.637 Y132.158 E2.96146
G1 X80.637 Y115.549 E3.2567
G1 X80.646 Y114.879 E3.26861
G1 X80.693 Y114.343 E3.27818
G1 X80.819 Y113.819 E3.28776
G1 X81.022 Y113.32 E3.29733
G1 X81.295 Y112.856 E3.3069
G1 X81.635 Y112.438 E3.31648
G1 X82.032 Y112.075 E3.32604
M204 S625
M205 X30 Y30
G0 F4285.7 X82.437 Y112.297
M204 S500
M205 X20 Y20
G1 F1200 X82.874 Y112.04 E3.33506
G1 X83.345 Y111.856 E3.34404
G1 X83.84 Y111.748 E3.35305
G1 X84.377 Y111.72 E3.36261
G1 X85.323 Y111.75 E3.37943
G1 X94.032 Y112.186 E3.53444
G1 X95.973 Y112.263 E3.56897
G1 X104.819 Y112.529 E3.72629
G1 X106.755 Y112.567 E3.76071
G1 X115.605 Y112.655 E3.91803
G1 X117.529 Y112.655 E3.95223
G1 X126.379 Y112.567 E4.10956
G1 X128.315 Y112.529 E4.14398
G1 X137.161 Y112.263 E4.3013
G1 X139.103 Y112.186 E4.33584
G1 X148.07 Y111.738 E4.49544
G1 X148.74 Y111.715 E4.50736
G1 X149.246 Y111.737 E4.51636
G1 X149.742 Y111.839 E4.52536
G1 X150.216 Y112.018 E4.53437
G1 X150.655 Y112.269 E4.54336
G1 X151.05 Y112.586 E4.55236
G1 X151.39 Y112.961 E4.56136
G1 X151.667 Y113.385 E4.57036
G1 X151.874 Y113.847 E4.57936
G1 X152.006 Y114.336 E4.58836
G1 X152.059 Y114.862 E4.59776
G1 X152.077 Y115.816 E4.61472
G1 X152.077 Y131.808 E4.899
G1 X152.067 Y132.535 E4.91192
G1 X152.02 Y133.039 E4.92092
G1 X151.894 Y133.53 E4.92993
G1 X151.693 Y133.995 E4.93893
G1 X151.421 Y134.422 E4.94793
G1 X151.086 Y134.801 E4.95693
G1 X150.695 Y135.123 E4.96593
G1 X150.258 Y135.379 E4.97493
G1 X149.787 Y135.563 E4.98392
G1 X149.292 Y135.671 E4.99293
G1 X148.627 Y135.709 E5.00477
G1 X84.933 Y135.71 E6.13699
G1 X84.235 Y135.701 E6.1494
G1 X83.73 Y135.654 E6.15841
G1 X83.24 Y135.529 E6.1674
G1 X82.775 Y135.328 E6.17641
G1 X82.347 Y135.057 E6.18541
G1 X81.968 Y134.722 E6.19441
G1 X81.646 Y134.331 E6.20341
G1 X81.389 Y133.895 E6.21241
G1 X81.204 Y133.423 E6.22142
G1 X81.096 Y132.929 E6.23041
G1 X81.058 Y132.245 E6.24258
G1 X81.057 Y115.555 E6.53927
G1 X81.066 Y114.885 E6.55118
G1 X81.113 Y114.381 E6.56017
G1 X81.238 Y113.89 E6.56918
G1 X81.439 Y113.425 E6.57819
G1 X81.711 Y112.998 E6.58719
G1 X82.046 Y112.619 E6.59618
G1 X82.437 Y112.297 E6.60518
M204 S625
M205 X30 Y30
G1 F1500 E0.10518
G1 F600 Z2.27
;MESH:gant_partie_basse.STL
G0 F4285.7 X88.119 Y122.271 Z2.27
M204 S500
M205 X20 Y20
;TYPE:WALL-INNER
G1 F600 Z0.27
G1 F1500 E6.60518
G1 F1200 X88.838 Y122.635 E6.61746
G1 X97.222 Y122.635 E6.7452
G1 X97.863 Y122.423 E6.75549
G1 X98.227 Y121.704 E6.76777
G1 X98.227 Y119.52 E6.80105
G1 X98.015 Y118.879 E6.81133
G1 X97.296 Y118.515 E6.82361
G1 X88.912 Y118.515 E6.95135
G1 X88.271 Y118.727 E6.96164
G1 X87.907 Y119.446 E6.97392
G1 X87.907 Y121.63 E7.0072
G1 X88.119 Y122.271 E7.01748
M204 S625
M205 X30 Y30
G0 F4285.7 X88.414 Y122.017
M204 S500
M205 X20 Y20
G1 F1200 X88.924 Y122.275 E7.02619
G1 X97.164 Y122.275 E7.15174
G1 X97.609 Y122.128 E7.15888
G1 X97.867 Y121.618 E7.16759
G1 X97.867 Y119.578 E7.19867
G1 X97.72 Y119.133 E7.20581
G1 X97.21 Y118.875 E7.21452
G1 X88.97 Y118.875 E7.34007
G1 X88.525 Y119.022 E7.34721
G1 X88.267 Y119.532 E7.35592
G1 X88.267 Y121.572 E7.387
G1 X88.414 Y122.017 E7.39414
M204 S625
M205 X30 Y30
G0 F4285.7 X88.734 Y121.742
M204 S500
M205 X20 Y20
;TYPE:WALL-OUTER
G1 F1200 X89.017 Y121.885 E7.39978
G1 X97.101 Y121.885 E7.54348
G1 X97.334 Y121.808 E7.54784
G1 X97.477 Y121.525 E7.55348
G1 X97.477 Y119.641 E7.58697
G1 X97.4 Y119.408 E7.59133
G1 X97.117 Y119.265 E7.59697
G1 X89.033 Y119.265 E7.74067
G1 X88.8 Y119.342 E7.74503
G1 X88.657 Y119.625 E7.75067
G1 X88.657 Y121.509 E7.78416
G1 X88.734 Y121.742 E7.78852
M204 S625
M205 X30 Y30
G0 F4285.7 X88.912 Y121.832
G0 X88.704 Y122.243
G1 F1500 E1.28852
G1 F600 Z2.27
G0 F4285.7 X88.573 Y122.5 Z2.27
G0 X92.707 Y130.616
M204 S500
M205 X20 Y20
;TYPE:WALL-INNER
G1 F600 Z0.27
G1 F1500 E7.78852
G1 F1200 X93.244 Y130.632 E7.7967
G1 X93.77 Y130.557 E7.8048
G1 X94.281 Y130.396 E7.81296
G1 X94.758 Y130.147 E7.82116
G1 X95.186 Y129.822 E7.82935
G1 X95.552 Y129.431 E7.83751
G1 X95.845 Y128.985 E7.84564
G1 X96.062 Y128.493 E7.85383
G1 X96.191 Y127.967 E7.86209
G1 X96.228 Y127.435 E7.87021
G1 X96.176 Y126.902 E7.87837
G1 X96.035 Y126.385 E7.88654
G1 X95.808 Y125.9 E7.8947
G1 X95.503 Y125.459 E7.90287
G1 X95.127 Y125.076 E7.91104
G1 X94.692 Y124.763 E7.91921
G1 X94.207 Y124.527 E7.92743
G1 X93.695 Y124.378 E7.93555
G1 X93.165 Y124.315 E7.94368
G1 X92.623 Y124.344 E7.95195
G1 X92.104 Y124.464 E7.96007
G1 X91.611 Y124.668 E7.9682
G1 X91.157 Y124.955 E7.97638
G1 X90.757 Y125.315 E7.98458
G1 X90.424 Y125.739 E7.9928
G1 X90.17 Y126.21 E8.00095
G1 X89.998 Y126.718 E8.00912
G1 X89.915 Y127.247 E8.01728
G1 X89.92 Y127.783 E8.02545
G1 X90.017 Y128.31 E8.03361
G1 X90.201 Y128.81 E8.04173
G1 X90.471 Y129.279 E8.04998
G1 X90.812 Y129.69 E8.05811
G1 X91.219 Y130.041 E8.0663
G1 X91.679 Y130.314 E8.07445
G1 X92.178 Y130.511 E8.08263
G1 X92.707 Y130.616 E8.09084
M204 S625
M205 X30 Y30
G0 F4285.7 X92.748 Y130.257
M204 S500
M205 X20 Y20
G1 F1200 X93.224 Y130.271 E8.0981
G1 X93.69 Y130.205 E8.10527
G1 X94.143 Y130.062 E8.11251
G1 X94.565 Y129.842 E8.11976
G1 X94.944 Y129.554 E8.12701
G1 X95.268 Y129.208 E8.13423
G1 X95.528 Y128.812 E8.14145
G1 X95.72 Y128.377 E8.1487
G1 X95.834 Y127.911 E8.15601
G1 X95.867 Y127.44 E8.1632
G1 X95.821 Y126.967 E8.17044
G1 X95.696 Y126.51 E8.17766
G1 X95.495 Y126.08 E8.18489
G1 X95.224 Y125.689 E8.19214
G1 X94.892 Y125.35 E8.19937
G1 X94.507 Y125.073 E8.2066
G1 X94.077 Y124.864 E8.21388
G1 X93.623 Y124.732 E8.22109
G1 X93.153 Y124.676 E8.2283
G1 X92.674 Y124.702 E8.23561
G1 X92.214 Y124.808 E8.2428
G1 X91.777 Y124.989 E8.25001
G1 X91.375 Y125.243 E8.25725
G1 X91.021 Y125.562 E8.26451
G1 X90.726 Y125.937 E8.27178
G1 X90.501 Y126.354 E8.279
G1 X90.349 Y126.804 E8.28624
G1 X90.275 Y127.273 E8.29347
G1 X90.28 Y127.748 E8.30071
G1 X90.366 Y128.215 E8.30795
G1 X90.528 Y128.657 E8.31512
G1 X90.768 Y129.073 E8.32244
G1 X91.07 Y129.437 E8.32964
G1 X91.43 Y129.748 E8.33689
G1 X91.838 Y129.99 E8.34412
G1 X92.28 Y130.164 E8.35136
G1 X92.748 Y130.257 E8.35863
M204 S625
M205 X30 Y30
G0 F4285.7 X92.792 Y129.868
M204 S500
M205 X20 Y20
;TYPE:WALL-OUTER
G1 F1200 X93.202 Y129.88 E8.36592
G1 X93.603 Y129.823 E8.37312
G1 X93.993 Y129.7 E8.38039
G1 X94.355 Y129.511 E8.38765
G1 X94.682 Y129.263 E8.39494
G1 X94.96 Y128.966 E8.40217
G1 X95.184 Y128.625 E8.40942
G1 X95.349 Y128.251 E8.41669
G1 X95.447 Y127.85 E8.42403
G1 X95.476 Y127.445 E8.43125
G1 X95.436 Y127.038 E8.43852
G1 X95.329 Y126.645 E8.44576
G1 X95.156 Y126.275 E8.45302
G1 X94.922 Y125.938 E8.46031
G1 X94.637 Y125.647 E8.46755
G1 X94.306 Y125.409 E8.4748
G1 X93.936 Y125.229 E8.48211
G1 X93.545 Y125.115 E8.48935
G1 X93.141 Y125.067 E8.49658
G1 X92.729 Y125.09 E8.50392
G1 X92.333 Y125.181 E8.51114
G1 X91.957 Y125.337 E8.51838
G1 X91.611 Y125.555 E8.52565
G1 X91.307 Y125.829 E8.53292
G1 X91.053 Y126.152 E8.54023
G1 X90.86 Y126.51 E8.54746
G1 X90.729 Y126.898 E8.55474
G1 X90.665 Y127.301 E8.56199
G1 X90.67 Y127.71 E8.56926
G1 X90.744 Y128.112 E8.57653
G1 X90.883 Y128.492 E8.58372
G1 X91.089 Y128.85 E8.59106
G1 X91.349 Y129.163 E8.59829
G1 X91.659 Y129.43 E8.60557
G1 X92.01 Y129.639 E8.61283
G1 X92.39 Y129.788 E8.62008
G1 X92.792 Y129.868 E8.62737
M204 S625
M205 X30 Y30
G0 F4285.7 X92.992 Y129.873
G0 X92.978 Y130.335
G1 F1500 E2.12737
G0 F4285.7 X92.978 Y130.363
G0 X94.447 Y130.955
G0 X94.486 Y135.54
G0 X81.239 Y135.528
G0 X81.24 Y111.729
G0 X113.154 Y112.801
G0 X113.095 Y117.963
G0 X104.631 Y118.836
G0 X103.923 Y119.469
G0 X103.786 Y122.271
M204 S500
M205 X20 Y20
;TYPE:WALL-INNER
G1 F1500 E8.62737
G1 F1200 X104.505 Y122.635 E8.63965
G1 X112.889 Y122.635 E8.76739
G1 X113.53 Y122.423 E8.77768
G1 X113.894 Y121.704 E8.78996
G1 X113.894 Y119.52 E8.82323
G1 X113.682 Y118.879 E8.83352
G1 X112.963 Y118.515 E8.8458
G1 X104.579 Y118.515 E8.97354
G1 X103.938 Y118.727 E8.98383
G1 X103.574 Y119.446 E8.99611
G1 X103.574 Y121.63 E9.02939
G1 X103.786 Y122.271 E9.03967
M204 S625
M205 X30 Y30
G0 F4285.7 X104.081 Y122.017
M204 S500
M205 X20 Y20
G1 F1200 X104.591 Y122.275 E9.04838
G1 X112.831 Y122.275 E9.17393
G1 X113.276 Y122.128 E9.18107
G1 X113.534 Y121.618 E9.18978
G1 X113.534 Y119.578 E9.22086
G1 X113.387 Y119.133 E9.228
G1 X112.877 Y118.875 E9.23671
G1 X104.637 Y118.875 E9.36226
G1 X104.192 Y119.022 E9.3694
G1 X103.934 Y119.532 E9.37811
G1 X103.934 Y121.572 E9.40919
G1 X104.081 Y122.017 E9.41633
M204 S625
M205 X30 Y30
G0 F4285.7 X104.401 Y121.742
M204 S500
M205 X20 Y20
;TYPE:WALL-OUTER
G1 F1200 X104.684 Y121.885 E9.42197
G1 X112.768 Y121.885 E9.56567
G1 X113.001 Y121.808 E9.57003
G1 X113.144 Y121.525 E9.57567
G1 X113.144 Y119.641 E9.60916
G1 X113.067 Y119.408 E9.61352
G1 X112.784 Y119.265 E9.61916
G1 X104.7 Y119.265 E9.76286
G1 X104.467 Y119.342 E9.76722
G1 X104.324 Y119.625 E9.77286
G1 X104.324 Y121.509 E9.80635
G1 X104.401 Y121.742 E9.81071
M204 S625
M205 X30 Y30
G0 F4285.7 X104.579 Y121.832
G0 X104.371 Y122.243
G1 F1500 E3.31071
G1 F600 Z2.27
G0 F4285.7 X104.24 Y122.5 Z2.27
G0 X108.374 Y130.616
M204 S500
M205 X20 Y20
;TYPE:WALL-INNER
G1 F600 Z0.27
G1 F1500 E9.81071
G1 F1200 X108.911 Y130.632 E9.81889
G1 X109.436 Y130.557 E9.82697
G1 X109.949 Y130.396 E9.83517
G1 X110.428 Y130.145 E9.84341
G1 X110.852 Y129.821 E9.85154
G1 X111.217 Y129.435 E9.85963
G1 X111.513 Y128.984 E9.86785
G1 X111.729 Y128.49 E9.87607
G1 X111.857 Y127.968 E9.88426
G1 X111.895 Y127.436 E9.89238
G1 X111.844 Y126.906 E9.90049
G1 X111.702 Y126.383 E9.90875
G1 X111.475 Y125.9 E9.91688
G1 X111.168 Y125.457 E9.9251
G1 X110.793 Y125.076 E9.93324
G1 X110.359 Y124.763 E9.94139
G1 X109.873 Y124.527 E9.94963
G1 X109.361 Y124.378 E9.95775
G1 X108.832 Y124.315 E9.96587
G1 X108.292 Y124.344 E9.97411
G1 X107.771 Y124.464 E9.98225
G1 X107.278 Y124.668 E9.99038
G1 X106.824 Y124.955 E9.99857
G1 X106.424 Y125.315 E10.00677
G1 X106.091 Y125.739 E10.01498
G1 X105.837 Y126.21 E10.02313
G1 X105.664 Y126.717 E10.0313
G1 X105.581 Y127.247 E10.03947
G1 X105.586 Y127.783 E10.04764
G1 X105.685 Y128.312 E10.05584
G1 X105.87 Y128.812 E10.06396
G1 X106.138 Y129.279 E10.07216
G1 X106.479 Y129.69 E10.0803
G1 X106.886 Y130.041 E10.08849
G1 X107.346 Y130.314 E10.09664
G1 X107.844 Y130.511 E10.1048
G1 X108.374 Y130.616 E10.11303
M204 S625
M205 X30 Y30
G0 F4285.7 X108.415 Y130.257
M204 S500
M205 X20 Y20
G1 F1200 X108.891 Y130.271 E10.12029
G1 X109.356 Y130.205 E10.12744
G1 X109.81 Y130.062 E10.1347
G1 X110.234 Y129.84 E10.14199
G1 X110.61 Y129.553 E10.1492
G1 X110.933 Y129.211 E10.15636
G1 X111.195 Y128.812 E10.16364
G1 X111.387 Y128.374 E10.17092
G1 X111.5 Y127.912 E10.17817
G1 X111.534 Y127.44 E10.18538
G1 X111.489 Y126.971 E10.19256
G1 X111.363 Y126.508 E10.19987
G1 X111.162 Y126.08 E10.20707
G1 X110.89 Y125.687 E10.21436
G1 X110.558 Y125.35 E10.22156
G1 X110.174 Y125.073 E10.22878
G1 X109.743 Y124.864 E10.23608
G1 X109.289 Y124.732 E10.24328
G1 X108.82 Y124.676 E10.25048
G1 X108.342 Y124.702 E10.25777
G1 X107.881 Y124.808 E10.26498
G1 X107.444 Y124.989 E10.27219
G1 X107.042 Y125.243 E10.27943
G1 X106.688 Y125.562 E10.28669
G1 X106.393 Y125.937 E10.29396
G1 X106.168 Y126.354 E10.30118
G1 X106.015 Y126.804 E10.30842
G1 X105.941 Y127.273 E10.31566
G1 X105.946 Y127.748 E10.32289
G1 X106.033 Y128.216 E10.33015
G1 X106.197 Y128.659 E10.33734
G1 X106.435 Y129.073 E10.34462
G1 X106.737 Y129.437 E10.35183
G1 X107.097 Y129.748 E10.35908
G1 X107.505 Y129.99 E10.3663
G1 X107.946 Y130.164 E10.37353
G1 X108.415 Y130.257 E10.38081
M204 S625
M205 X30 Y30
G0 F4285.7 X108.459 Y129.868
M204 S500
M205 X20 Y20
;TYPE:WALL-OUTER
G1 F1200 X108.869 Y129.88 E10.3881
G1 X109.269 Y129.823 E10.39529
G1 X109.66 Y129.7 E10.40257
G1 X110.024 Y129.51 E10.40987
G1 X110.348 Y129.262 E10.41712
G1 X110.626 Y128.968 E10.42432
G1 X110.851 Y128.625 E10.43161
G1 X111.016 Y128.249 E10.43891
G1 X111.113 Y127.851 E10.44619
G1 X111.143 Y127.444 E10.45344
G1 X111.104 Y127.041 E10.46064
G1 X110.996 Y126.643 E10.46797
G1 X110.823 Y126.275 E10.4752
G1 X110.589 Y125.937 E10.48251
G1 X110.303 Y125.647 E10.48975
G1 X109.973 Y125.409 E10.49698
G1 X109.602 Y125.229 E10.50431
G1 X109.211 Y125.115 E10.51155
G1 X108.808 Y125.067 E10.51876
G1 X108.397 Y125.09 E10.52608
G1 X108 Y125.181 E10.53332
G1 X107.624 Y125.337 E10.54056
G1 X107.278 Y125.555 E10.54783
G1 X106.974 Y125.829 E10.5551
G1 X106.72 Y126.152 E10.56241
G1 X106.527 Y126.51 E10.56964
G1 X106.395 Y126.898 E10.57692
G1 X106.331 Y127.301 E10.58418
G1 X106.336 Y127.71 E10.59145
G1 X106.41 Y128.112 E10.59871
G1 X106.551 Y128.493 E10.60593
G1 X106.756 Y128.85 E10.61325
G1 X107.016 Y129.163 E10.62048
G1 X107.326 Y129.43 E10.62776
G1 X107.677 Y129.639 E10.63502
G1 X108.056 Y129.788 E10.64226
G1 X108.459 Y129.868 E10.64956
M204 S625
M205 X30 Y30
G0 F4285.7 X108.659 Y129.873
G0 X108.645 Y130.335
G1 F1500 E4.14956
G0 F4285.7 X108.645 Y130.363
G0 X110.115 Y130.955
G0 X110.154 Y135.54
G0 X81.239 Y135.528
G0 X81.24 Y111.729
G0 X120.1 Y112.8
G0 X120.157 Y117.964
G0 X119.563 Y119.523
G0 X119.453 Y122.271
M204 S500
M205 X20 Y20
;TYPE:WALL-INNER
G1 F1500 E10.64956
G1 F1200 X120.172 Y122.635 E10.66184
G1 X128.556 Y122.635 E10.78958
G1 X129.197 Y122.423 E10.79987
G1 X129.561 Y121.704 E10.81215
G1 X129.561 Y119.52 E10.84543
G1 X129.349 Y118.879 E10.85571
G1 X128.63 Y118.515 E10.86799
G1 X120.246 Y118.515 E10.99574
G1 X119.605 Y118.727 E11.00602
G1 X119.241 Y119.446 E11.0183
G1 X119.241 Y121.63 E11.05158
G1 X119.453 Y122.271 E11.06186
M204 S625
M205 X30 Y30
G0 F4285.7 X119.748 Y122.017
M204 S500
M205 X20 Y20
G1 F1200 X120.258 Y122.275 E11.07057
G1 X128.498 Y122.275 E11.19612
G1 X128.943 Y122.128 E11.20326
G1 X129.201 Y121.618 E11.21197
G1 X129.201 Y119.578 E11.24305
