;START_OF_HEADER
;HEADER_VERSION:0.1
;FLAVOR:Griffin
;GENERATOR.NAME:Cura_SteamEngine
;GENERATOR.VERSION:4.13.0
;GENERATOR.BUILD_DATE:2022-01-11
;TARGET_MACHINE.NAME:Ultimaker 3
;EXTRUDER_TRAIN.0.INITIAL_TEMPERATURE:205
;EXTRUDER_TRAIN.0.MATERIAL.VOLUME_USED:10108
;EXTRUDER_TRAIN.0.MATERIAL.GUID:506c9f0d-e3aa-4bd4-b2d2-23e2425b1aa9
;EXTRUDER_TRAIN.0.NOZZLE.DIAMETER:0.4
;EXTRUDER_TRAIN.0.NOZZLE.NAME:AA 0.4
;BUILD_PLATE.TYPE:glass
;BUILD_PLATE.INITIAL_TEMPERATURE:60
;PRINT.TIME:4597
;PRINT.GROUPS:1
;PRINT.SIZE.MIN.X:9
;PRINT.SIZE.MIN.Y:6
;PRINT.SIZE.MIN.Z:0.27
;PRINT.SIZE.MAX.X:152.497
;PRINT.SIZE.MAX.Y:120.93
;PRINT.SIZE.MAX.Z:18.02
;END_OF_HEADER
;Generated with Cura_SteamEngine 4.13.0
T0
M82 ;absolute extrusion mode

G92 E0
M109 S205
G0 F15000 X9 Y6 Z2
G280
G1 F1500 E-6.5
;LAYER_COUNT:64
;LAYER:0
M107
M204 S625
M205 X30 Y30
G1 F600 Z2.27
G0 F4285.7 X82.032 Y94.877 Z2.27
M204 S500
M205 X20 Y20
;TYPE:SKIRT
G1 F600 Z0.27
G1 F1500 E0
G1 F1200 X82.479 Y94.576 E0.00958
G1 X82.965 Y94.345 E0.01914
G1 X83.481 Y94.188 E0.02873
G1 X84.013 Y94.11 E0.03829
G1 X84.657 Y94.116 E0.04974
G1 X85.107 Y94.151 E0.05776
G1 X91.218 Y94.711 E0.16685
G1 X93.782 Y94.912 E0.21256
G1 X99.144 Y95.264 E0.30808
G1 X101.761 Y95.4 E0.35467
G1 X107.264 Y95.615 E0.45256
G1 X109.848 Y95.682 E0.49851
G1 X115.35 Y95.753 E0.59632
G1 X117.855 Y95.752 E0.64085
G1 X123.4 Y95.679 E0.73943
G1 X125.986 Y95.612 E0.78541
G1 X131.42 Y95.398 E0.88208
G1 X134.01 Y95.263 E0.92818
G1 X139.401 Y94.909 E1.02422
G1 X141.976 Y94.706 E1.07013
G1 X147.891 Y94.165 E1.17572
G1 X148.578 Y94.112 E1.18797
G1 X149.116 Y94.11 E1.19753
G1 X149.649 Y94.188 E1.20711
G1 X150.164 Y94.345 E1.21668
G1 X150.651 Y94.575 E1.22625
G1 X151.098 Y94.875 E1.23582
G1 X151.496 Y95.238 E1.2454
G1 X151.836 Y95.656 E1.25497
G1 X152.11 Y96.12 E1.26455
G1 X152.312 Y96.619 E1.27412
G1 X152.439 Y97.142 E1.28369
G1 X152.489 Y97.695 E1.29356
G1 X152.497 Y98.194 E1.30243
G1 X152.497 Y116.614 E1.62986
G1 X152.487 Y117.341 E1.64279
G1 X152.439 Y117.877 E1.65235
G1 X152.313 Y118.401 E1.66193
G1 X152.111 Y118.9 E1.6715
G1 X151.837 Y119.364 E1.68108
G1 X151.498 Y119.782 E1.69065
G1 X151.1 Y120.145 E1.70022
G1 X150.653 Y120.445 E1.70979
G1 X150.167 Y120.676 E1.71936
G1 X149.651 Y120.833 E1.72895
G1 X148.959 Y120.92 E1.74134
G1 X148.537 Y120.93 E1.74885
G1 X84.927 Y120.93 E2.87958
G1 X84.229 Y120.921 E2.89199
G1 X83.693 Y120.874 E2.90155
G1 X83.169 Y120.748 E2.91113
G1 X82.67 Y120.546 E2.9207
G1 X82.206 Y120.273 E2.93027
G1 X81.788 Y119.934 E2.93984
G1 X81.424 Y119.537 E2.94941
G1 X81.123 Y119.09 E2.95899
G1 X80.892 Y118.604 E2.96856
G1 X80.735 Y118.089 E2.97813
G1 X80.647 Y117.389 E2.99067
G1 X80.637 Y116.958 E2.99833
G1 X80.637 Y98.347 E3.32916
G1 X80.646 Y97.681 E3.341
G1 X80.694 Y97.145 E3.35057
G1 X80.82 Y96.621 E3.36015
G1 X81.022 Y96.122 E3.36972
G1 X81.295 Y95.658 E3.37929
G1 X81.635 Y95.24 E3.38886
G1 X82.032 Y94.877 E3.39843
M204 S625
M205 X30 Y30
G0 F4285.7 X82.438 Y95.099
M204 S500
M205 X20 Y20
G1 F1200 X82.874 Y94.842 E3.40742
G1 X83.346 Y94.658 E3.41643
G1 X83.84 Y94.55 E3.42542
G1 X84.455 Y94.525 E3.43636
G1 X85.035 Y94.566 E3.44669
G1 X91.204 Y95.131 E3.55681
G1 X93.725 Y95.329 E3.60176
G1 X99.112 Y95.682 E3.69773
G1 X101.729 Y95.819 E3.74431
G1 X107.295 Y96.036 E3.84333
G1 X109.832 Y96.102 E3.88844
G1 X115.344 Y96.173 E3.98643
G1 X117.861 Y96.172 E4.03117
G1 X123.416 Y96.099 E4.12993
G1 X125.954 Y96.033 E4.17506
G1 X131.457 Y95.817 E4.27295
G1 X134.043 Y95.681 E4.31899
G1 X139.453 Y95.327 E4.41536
G1 X141.985 Y95.127 E4.46051
G1 X147.923 Y94.584 E4.5665
G1 X148.61 Y94.531 E4.57875
G1 X149.116 Y94.532 E4.58775
G1 X149.616 Y94.612 E4.59675
G1 X150.097 Y94.77 E4.60575
G1 X150.548 Y95.002 E4.61476
G1 X150.956 Y95.302 E4.62376
G1 X151.311 Y95.662 E4.63275
G1 X151.606 Y96.074 E4.64176
G1 X151.833 Y96.527 E4.65077
G1 X151.985 Y97.01 E4.65977
G1 X152.064 Y97.595 E4.67026
G1 X152.077 Y98.199 E4.681
G1 X152.077 Y116.608 E5.00824
G1 X152.067 Y117.335 E5.02116
G1 X152.02 Y117.839 E5.03016
G1 X151.894 Y118.33 E5.03917
G1 X151.693 Y118.795 E5.04818
G1 X151.421 Y119.222 E5.05718
G1 X151.086 Y119.601 E5.06617
G1 X150.695 Y119.923 E5.07517
G1 X150.258 Y120.179 E5.08417
G1 X149.787 Y120.363 E5.09316
G1 X149.292 Y120.471 E5.10217
G1 X148.627 Y120.509 E5.11401
G1 X84.933 Y120.51 E6.24623
G1 X84.235 Y120.501 E6.25864
G1 X83.73 Y120.454 E6.26766
G1 X83.24 Y120.329 E6.27665
G1 X82.775 Y120.128 E6.28565
G1 X82.347 Y119.857 E6.29466
G1 X81.968 Y119.522 E6.30365
G1 X81.646 Y119.131 E6.31265
G1 X81.389 Y118.695 E6.32165
G1 X81.204 Y118.223 E6.33066
G1 X81.096 Y117.729 E6.33965
G1 X81.058 Y117.045 E6.35183
G1 X81.057 Y98.353 E6.68409
G1 X81.066 Y97.687 E6.69593
G1 X81.113 Y97.182 E6.70495
G1 X81.239 Y96.692 E6.71394
G1 X81.44 Y96.227 E6.72295
G1 X81.711 Y95.8 E6.73194
G1 X82.047 Y95.42 E6.74095
G1 X82.438 Y95.099 E6.74995
M204 S625
M205 X30 Y30
G1 F1500 E0.24995
;MESH:gant_partie_basse.STL
G0 F4285.7 X84.88 Y98.39
G0 X85.789 Y115.778
G0 X89.727 Y115.766
G0 X90.053 Y111.062
G0 X90.948 Y110.339
G0 X88.119 Y109.396
M204 S500
M205 X20 Y20
;TYPE:WALL-INNER
G1 F1500 E6.74995
G1 F1200 X88.838 Y109.76 E6.76223
G1 X96.622 Y109.76 E6.88083
G1 X97.263 Y109.548 E6.89111
G1 X97.627 Y108.829 E6.90339
G1 X97.627 Y106.845 E6.93362
G1 X97.415 Y106.204 E6.94391
G1 X96.696 Y105.84 E6.95619
G1 X88.912 Y105.84 E7.07479
G1 X88.271 Y106.052 E7.08508
G1 X87.907 Y106.771 E7.09736
G1 X87.907 Y108.755 E7.12759
G1 X88.119 Y109.396 E7.13787
M204 S625
M205 X30 Y30
G0 F4285.7 X88.414 Y109.142
M204 S500
M205 X20 Y20
G1 F1200 X88.924 Y109.4 E7.14658
G1 X96.564 Y109.4 E7.26299
G1 X97.009 Y109.253 E7.27013
G1 X97.267 Y108.743 E7.27884
G1 X97.267 Y106.903 E7.30687
G1 X97.12 Y106.458 E7.31401
G1 X96.61 Y106.2 E7.32272
G1 X88.97 Y106.2 E7.43913
G1 X88.525 Y106.347 E7.44627
G1 X88.267 Y106.857 E7.45498
G1 X88.267 Y108.697 E7.48301
G1 X88.414 Y109.142 E7.49015
M204 S625
M205 X30 Y30
G0 F4285.7 X88.734 Y108.867
M204 S500
M205 X20 Y20
;TYPE:WALL-OUTER
G1 F1200 X89.017 Y109.01 E7.49579
G1 X96.501 Y109.01 E7.62883
G1 X96.734 Y108.933 E7.63319
G1 X96.877 Y108.65 E7.63882
G1 X96.877 Y106.966 E7.66876
G1 X96.8 Y106.733 E7.67312
G1 X96.517 Y106.59 E7.67876
G1 X89.033 Y106.59 E7.81179
G1 X88.8 Y106.667 E7.81615
G1 X88.657 Y106.95 E7.82179
G1 X88.657 Y108.634 E7.85173
G1 X88.734 Y108.867 E7.85609
M204 S625
M205 X30 Y30
G0 F4285.7 X88.912 Y108.957
G0 X88.704 Y109.368
G0 X88.69 Y109.393
G0 X90.948 Y110.339
G0 X90.011 Y112.919
G0 X89.941 Y113.874
G0 X90.195 Y114.802
G0 X90.741 Y115.592
G0 X91.34 Y116.043
G0 X92.433 Y116.481
G0 X92.444 Y116.382
M204 S500
M205 X20 Y20
;TYPE:WALL-INNER
G1 F1200 X92.923 Y116.396 E7.86339
G1 X93.388 Y116.33 E7.87054
G1 X93.839 Y116.189 E7.87774
G1 X94.267 Y115.965 E7.8851
G1 X94.642 Y115.681 E7.89227
G1 X94.967 Y115.333 E7.89953
G1 X95.229 Y114.933 E7.90681
G1 X95.417 Y114.502 E7.91398
G1 X95.532 Y114.041 E7.92122
G1 X95.567 Y113.567 E7.92846
G1 X95.522 Y113.092 E7.93573
G1 X95.396 Y112.636 E7.94294
G1 X95.194 Y112.204 E7.9502
G1 X94.925 Y111.816 E7.9574
G1 X94.596 Y111.479 E7.96457
G1 X94.208 Y111.198 E7.97187
G1 X93.777 Y110.988 E7.97918
G1 X93.324 Y110.857 E7.98636
G1 X92.856 Y110.801 E7.99354
G1 X92.375 Y110.826 E8.00088
G1 X91.919 Y110.931 E8.00801
G1 X91.476 Y111.115 E8.01532
G1 X91.076 Y111.368 E8.02253
G1 X90.721 Y111.687 E8.0298
G1 X90.428 Y112.06 E8.03703
G1 X90.201 Y112.477 E8.04426
G1 X90.049 Y112.928 E8.05152
G1 X89.975 Y113.396 E8.05874
G1 X89.98 Y113.871 E8.06597
G1 X90.064 Y114.336 E8.07317
G1 X90.231 Y114.786 E8.08049
G1 X90.463 Y115.193 E8.08762
G1 X90.769 Y115.564 E8.09495
G1 X91.13 Y115.872 E8.10218
G1 X91.536 Y116.116 E8.1094
G1 X91.98 Y116.287 E8.11665
G1 X92.444 Y116.382 E8.12387
M204 S625
M205 X30 Y30
G0 F4285.7 X92.489 Y115.993
M204 S500
M205 X20 Y20
;TYPE:WALL-OUTER
G1 F1200 X92.901 Y116.005 E8.13119
G1 X93.302 Y115.948 E8.13839
G1 X93.689 Y115.827 E8.1456
G1 X94.057 Y115.634 E8.15299
G1 X94.38 Y115.39 E8.16018
G1 X94.659 Y115.091 E8.16745
G1 X94.885 Y114.747 E8.17477
G1 X95.047 Y114.376 E8.18196
G1 X95.146 Y113.979 E8.18924
G1 X95.176 Y113.571 E8.19651
G1 X95.137 Y113.163 E8.2038
G1 X95.029 Y112.771 E8.21102
G1 X94.855 Y112.399 E8.21832
G1 X94.623 Y112.065 E8.22555
G1 X94.34 Y111.775 E8.23276
G1 X94.007 Y111.534 E8.24006
G1 X93.636 Y111.353 E8.2474
G1 X93.246 Y111.24 E8.25462
G1 X92.843 Y111.192 E8.26183
G1 X92.429 Y111.214 E8.2692
G1 X92.038 Y111.304 E8.27633
G1 X91.656 Y111.462 E8.28368
G1 X91.312 Y111.68 E8.29092
G1 X91.007 Y111.954 E8.29821
G1 X90.755 Y112.275 E8.30546
G1 X90.56 Y112.634 E8.31273
G1 X90.429 Y113.022 E8.32001
G1 X90.365 Y113.424 E8.32724
G1 X90.37 Y113.834 E8.33453
G1 X90.442 Y114.233 E8.34174
G1 X90.586 Y114.621 E8.34909
G1 X90.785 Y114.971 E8.35625
G1 X91.048 Y115.289 E8.36359
G1 X91.359 Y115.554 E8.37085
G1 X91.708 Y115.764 E8.37809
G1 X92.09 Y115.911 E8.38537
G1 X92.489 Y115.993 E8.39261
M204 S625
M205 X30 Y30
G0 F4285.7 X92.689 Y115.998
G0 X92.675 Y116.46
G0 X92.675 Y116.488
G0 X105.594 Y115.766
G0 X105.92 Y111.062
G0 X106.812 Y110.339
G0 X103.986 Y109.396
M204 S500
M205 X20 Y20
;TYPE:WALL-INNER
G1 F1200 X104.705 Y109.76 E8.40489
G1 X112.489 Y109.76 E8.52349
G1 X113.13 Y109.548 E8.53377
G1 X113.494 Y108.829 E8.54605
G1 X113.494 Y106.845 E8.57628
G1 X113.282 Y106.204 E8.58657
G1 X112.563 Y105.84 E8.59885
G1 X104.779 Y105.84 E8.71745
G1 X104.138 Y106.052 E8.72774
G1 X103.774 Y106.771 E8.74002
G1 X103.774 Y108.755 E8.77024
G1 X103.986 Y109.396 E8.78053
M204 S625
M205 X30 Y30
G0 F4285.7 X104.281 Y109.142
M204 S500
M205 X20 Y20
G1 F1200 X104.791 Y109.4 E8.78924
G1 X112.431 Y109.4 E8.90565
G1 X112.876 Y109.253 E8.91279
G1 X113.134 Y108.743 E8.9215
G1 X113.134 Y106.903 E8.94953
G1 X112.987 Y106.458 E8.95667
G1 X112.477 Y106.2 E8.96538
G1 X104.837 Y106.2 E9.08179
G1 X104.392 Y106.347 E9.08893
G1 X104.134 Y106.857 E9.09764
G1 X104.134 Y108.697 E9.12567
G1 X104.281 Y109.142 E9.13281
M204 S625
M205 X30 Y30
G0 F4285.7 X104.601 Y108.867
M204 S500
M205 X20 Y20
;TYPE:WALL-OUTER
G1 F1200 X104.884 Y109.01 E9.13845
G1 X112.368 Y109.01 E9.27148
G1 X112.601 Y108.933 E9.27585
G1 X112.744 Y108.65 E9.28148
G1 X112.744 Y106.966 E9.31142
G1 X112.667 Y106.733 E9.31578
G1 X112.384 Y106.59 E9.32142
G1 X104.9 Y106.59 E9.45445
G1 X104.667 Y106.667 E9.45881
G1 X104.524 Y106.95 E9.46445
G1 X104.524 Y108.634 E9.49438
G1 X104.601 Y108.867 E9.49875
M204 S625
M205 X30 Y30
G0 F4285.7 X104.779 Y108.957
G0 X104.571 Y109.368
G0 X104.557 Y109.393
G0 X106.812 Y110.339
G0 X105.878 Y112.919
G0 X105.807 Y113.876
G0 X106.062 Y114.802
G0 X106.608 Y115.592
G0 X107.207 Y116.043
G0 X108.299 Y116.481
G0 X108.31 Y116.382
M204 S500
M205 X20 Y20
;TYPE:WALL-INNER
G1 F1200 X108.79 Y116.396 E9.50606
G1 X109.254 Y116.33 E9.5132
G1 X109.705 Y116.189 E9.5204
G1 X110.134 Y115.966 E9.52777
G1 X110.51 Y115.679 E9.53498
G1 X110.834 Y115.333 E9.5422
G1 X111.096 Y114.934 E9.54947
G1 X111.286 Y114.502 E9.55666
G1 X111.4 Y114.038 E9.56394
G1 X111.434 Y113.566 E9.57115
G1 X111.388 Y113.092 E9.57841
G1 X111.263 Y112.636 E9.58561
G1 X111.061 Y112.204 E9.59288
G1 X110.792 Y111.815 E9.60009
G1 X110.459 Y111.477 E9.60732
G1 X110.076 Y111.199 E9.61453
G1 X109.647 Y110.988 E9.62181
G1 X109.186 Y110.855 E9.62912
G1 X108.723 Y110.801 E9.63622
G1 X108.242 Y110.826 E9.64356
G1 X107.784 Y110.931 E9.65072
G1 X107.342 Y111.115 E9.65802
G1 X106.943 Y111.368 E9.66522
G1 X106.588 Y111.687 E9.67249
G1 X106.295 Y112.06 E9.67971
G1 X106.068 Y112.477 E9.68695
G1 X105.916 Y112.928 E9.6942
G1 X105.841 Y113.395 E9.70141
G1 X105.846 Y113.873 E9.70869
G1 X105.933 Y114.338 E9.7159
G1 X106.098 Y114.786 E9.72317
G1 X106.33 Y115.193 E9.73031
G1 X106.636 Y115.564 E9.73764
G1 X106.997 Y115.872 E9.74487
G1 X107.403 Y116.116 E9.75209
G1 X107.848 Y116.287 E9.75935
G1 X108.31 Y116.382 E9.76654
M204 S625
M205 X30 Y30
G0 F4285.7 X108.355 Y115.993
M204 S500
M205 X20 Y20
;TYPE:WALL-OUTER
G1 F1200 X108.768 Y116.005 E9.77388
G1 X109.168 Y115.948 E9.78106
G1 X109.556 Y115.827 E9.78829
G1 X109.924 Y115.635 E9.79567
G1 X110.248 Y115.389 E9.8029
G1 X110.526 Y115.091 E9.81014
G1 X110.752 Y114.747 E9.81746
G1 X110.915 Y114.376 E9.82466
G1 X111.013 Y113.977 E9.83196
G1 X111.043 Y113.571 E9.8392
G1 X111.003 Y113.163 E9.84649
G1 X110.896 Y112.771 E9.85371
G1 X110.722 Y112.399 E9.86101
G1 X110.491 Y112.065 E9.86823
G1 X110.204 Y111.774 E9.8755
G1 X109.874 Y111.534 E9.88275
G1 X109.506 Y111.353 E9.89004
G1 X109.109 Y111.239 E9.89738
G1 X108.71 Y111.192 E9.90452
G1 X108.296 Y111.214 E9.91189
G1 X107.903 Y111.304 E9.91906
G1 X107.523 Y111.462 E9.92638
G1 X107.179 Y111.68 E9.93362
G1 X106.874 Y111.954 E9.9409
G1 X106.622 Y112.275 E9.94816
G1 X106.427 Y112.634 E9.95542
G1 X106.296 Y113.022 E9.9627
G1 X106.231 Y113.424 E9.96994
G1 X106.236 Y113.835 E9.97724
G1 X106.31 Y114.234 E9.98446
G1 X106.453 Y114.621 E9.99179
G1 X106.652 Y114.971 E9.99895
G1 X106.915 Y115.289 E10.00628
G1 X107.226 Y115.554 E10.01355
G1 X107.575 Y115.764 E10.02079
G1 X107.958 Y115.911 E10.02808
G1 X108.355 Y115.993 E10.03529
M204 S625
M205 X30 Y30
G0 F4285.7 X108.555 Y115.998
G0 X108.541 Y116.46
G0 X108.541 Y116.488
G0 X121.46 Y115.766
G0 X121.787 Y111.063
G0 X122.679 Y110.339
G0 X119.853 Y109.396
M204 S500
M205 X20 Y20
;TYPE:WALL-INNER
G1 F1200 X120.572 Y109.76 E10.04757
G1 X128.356 Y109.76 E10.16617
G1 X128.997 Y109.548 E10.17645
G1 X129.361 Y108.829 E10.18873
G1 X129.361 Y106.845 E10.21896
G1 X129.149 Y106.204 E10.22925
G1 X128.43 Y105.84 E10.24153
G1 X120.646 Y105.84 E10.36013
G1 X120.005 Y106.052 E10.37042
G1 X119.641 Y106.771 E10.3827
G1 X119.641 Y108.755 E10.41292
G1 X119.853 Y109.396 E10.42321
M204 S625
M205 X30 Y30
G0 F4285.7 X120.148 Y109.142
M204 S500
M205 X20 Y20
G1 F1200 X120.658 Y109.4 E10.43192
G1 X128.298 Y109.4 E10.54833
G1 X128.743 Y109.253 E10.55547
G1 X129.001 Y108.743 E10.56418
G1 X129.001 Y106.903 E10.59221
G1 X128.854 Y106.458 E10.59935
G1 X128.344 Y106.2 E10.60806
G1 X120.704 Y106.2 E10.72447
G1 X120.259 Y106.347 E10.73161
G1 X120.001 Y106.857 E10.74032
G1 X120.001 Y108.697 E10.76835
G1 X120.148 Y109.142 E10.77549
M204 S625
M205 X30 Y30
G0 F4285.7 X120.468 Y108.867
M204 S500
M205 X20 Y20
;TYPE:WALL-OUTER
G1 F1200 X120.751 Y109.01 E10.78113
G1 X128.235 Y109.01 E10.91416
G1 X128.468 Y108.933 E10.91853
G1 X128.611 Y108.65 E10.92416
G1 X128.611 Y106.966 E10.9541
G1 X128.534 Y106.733 E10.95846
G1 X128.251 Y106.59 E10.9641
G1 X120.767 Y106.59 E11.09713
G1 X120.534 Y106.667 E11.10149
G1 X120.391 Y106.95 E11.10713
G1 X120.391 Y108.634 E11.13706
G1 X120.468 Y108.867 E11.14143
M204 S625
M205 X30 Y30
G0 F4285.7 X120.646 Y108.957
G0 X120.438 Y109.368
G0 X120.424 Y109.393
G0 X122.679 Y110.339
G0 X121.744 Y112.919
G0 X121.674 Y113.874
G0 X121.929 Y114.803
G0 X122.476 Y115.591
G0 X123.071 Y116.042
G0 X124.166 Y116.481
G0 X124.177 Y116.382
M204 S500
M205 X20 Y20
;TYPE:WALL-INNER
G1 F1200 X124.657 Y116.396 E11.14874
G1 X125.121 Y116.33 E11.15588
G1 X125.572 Y116.189 E11.16308
G1 X126 Y115.965 E11.17044
G1 X126.375 Y115.681 E11.17761
G1 X126.701 Y115.333 E11.18488
G1 X126.964 Y114.933 E11.19217
G1 X127.151 Y114.5 E11.19936
G1 X127.265 Y114.042 E11.20655
G1 X127.301 Y113.567 E11.21381
G1 X127.255 Y113.092 E11.22108
G1 X127.129 Y112.637 E11.22827
G1 X126.929 Y112.206 E11.23551
G1 X126.66 Y111.816 E11.24273
G1 X126.326 Y111.476 E11.24999
G1 X125.941 Y111.198 E11.25723
G1 X125.51 Y110.988 E11.26453
G1 X125.057 Y110.857 E11.27172
G1 X124.59 Y110.801 E11.27888
G1 X124.109 Y110.826 E11.28622
G1 X123.652 Y110.931 E11.29337
G1 X123.208 Y111.115 E11.30069
G1 X122.808 Y111.369 E11.30791
G1 X122.455 Y111.687 E11.31515
G1 X122.163 Y112.058 E11.32234
G1 X121.934 Y112.476 E11.3296
G1 X121.782 Y112.928 E11.33687
G1 X121.708 Y113.396 E11.34409
G1 X121.713 Y113.871 E11.35133
G1 X121.797 Y114.336 E11.35853
G1 X121.965 Y114.787 E11.36586
G1 X122.197 Y115.194 E11.373
G1 X122.504 Y115.563 E11.38031
G1 X122.861 Y115.87 E11.38749
G1 X123.269 Y116.116 E11.39474
G1 X123.715 Y116.287 E11.40202
G1 X124.177 Y116.382 E11.40921
M204 S625
M205 X30 Y30
G0 F4285.7 X124.222 Y115.993
M204 S500
M205 X20 Y20
;TYPE:WALL-OUTER
G1 F1200 X124.635 Y116.005 E11.41655
G1 X125.035 Y115.948 E11.42374
G1 X125.422 Y115.827 E11.43094
G1 X125.79 Y115.634 E11.43833
